icon-themes/sifr_svg/cmd/ar/sc_alphaliststyle.svg

<svg viewBox="0 0 16 16" xmlns="http://www.w3.org/2000/svg"><path d="m1 2v2h8v-2zm11 0c-.552285 0-1 .4477153-1 1v4h1v-1h2v1h1v-4c0-.5522847-.447715-1-1-1zm0 1h2v2h-2zm-7 2v2h4v-2zm-4 5v2h8v-2zm12 0c-.552285 0-1 .447715-1 1v1c-.552285 0-1 .447715-1 1v1c0 .552285.447715 1 1 1h2 1v-5h-1zm0 1h1v1h-1zm-8 2v2h4v-2zm7 0h2v1h-2z" fill="#555753"/></svg>

<svg xmlns="http://www.w3.org/2000/svg" viewBox="0 0 16 16">
  <path
     style="fill:#555753"
     d="M 1 2 L 1 4 L 9 4 L 9 2 L 1 2 z M 12 2 C 11.447715 2 11 2.4477153 11 3 L 11 7 L 12 7 L 12 6 L 14 6 L 14 7 L 15 7 L 15 3 C 15 2.4477153 14.552285 2 14 2 L 12 2 z M 12 3 L 14 3 L 14 5 L 12 5 L 12 3 z M 5 5 L 5 7 L 9 7 L 9 5 L 5 5 z M 1 10 L 1 12 L 9 12 L 9 10 L 1 10 z M 13 10 C 12.447715 10 12 10.447715 12 11 L 12 12 C 11.447715 12 11 12.447715 11 13 L 11 14 C 11 14.552285 11.447715 15 12 15 L 14 15 L 15 15 L 15 10 L 14 10 L 13 10 z M 13 11 L 14 11 L 14 12 L 13 12 L 13 11 z M 5 13 L 5 15 L 9 15 L 9 13 L 5 13 z M 12 13 L 14 13 L 14 14 L 12 14 L 12 13 z "
     />
</svg>
